X: 39
T: Martin O'Connor's Flying Clog
C:Phil Cunningham
M:C
L:1/16
Q:200
K:F
F2(3FFF cFAc dFBd cAGA| F2(3FFF AFGA BD (3DDD FDCD|
F2(3FFF cFAc dFBd cAGA| B2(3DDD FDB,D CEGc AcGc|
F2(3FFF cFAc dFBd cAGA| F2(3FFF AFGA BD (3DDD FDCD|
F2(3FFF cFAc dFBd cAGA| B2(3DDD FDB,D CEGc AFF z ||
Ac (3ccc dcfc dcfc dfcB| Ac (3ccc dcfc dggf edcB|
ABcA B3D (3DDD BD (3CCC AC| B2(3DDD FDB,D CEGc AFF z|
Ac (3ccc dcfc dcfc dfcB| Ac (3ccc dcfc dggf ecBG|
ABcA B3D (3DDD BD (3CCC AC| B2(3DDD FDB,D CEGc AcGc || c16 ||

%%sep 2 1 500

